X: 1
T:Paddy Fahys reel (number 15)
M:4/4
L:1/8
C:Paddy Fahy
K:G
 G,2B,D GBdB | ~c2ag fgdc | BG~G2 BcdB | cdAG (3FED CA, |
 G,2B,D  GBdB  | ~c2ag fgdc | BG~G2 BcdB | cAFA G2Bd :||
 ~g2fa gdBG | =FGAB ~c2dc | Aaag abag | fdAd adfa |
 ~g2fa fdBG | =FGAB ~c2Bc | dggf defd |1 cAFA G2Bd :|
 |2 cAFA G2 z2 ||
